X:14
T:Summerweid-Juiz. 2005  Bb  ABCD
T:André von Moos-Müller (7.2.1957)
T:Dirigenten-Notiz  Edi Gasser
C:Unterwalden (CH)
%%partsbox
P:ABCD
M:3/4
R:Naturjodel
L:1/8
K:Bb
[P:A] "ruhig und getragen" D>E | F3B Bc | d>e df ed | d>c ce dc | 
B>G !breath! !fermata! F2 D>E | F3B Bc | d>e df ed | d>c ce dc | !fermata!B4z2 || 
L:1/8
M:3/4
[P:B] "fröhlich"  dc| B3G Ac | B2 F2 dg | f3g fe | !breath!d4 dc | B3G Ac | B2F2 dg | f3e Ac | B4 dc | 
B3G Ac | B2F2 dg | f3g fe | !breath!d4 dc | B3G Ac | B2F2 dg | f3 "rit."e dc | !fermata!B4 ||
M:3/4
L:1/8
[P:C] "ruhig und getragen" D>E | F3B Bc | d>e df ed | d>c ce dc | B>G !fermata! F2 D>E | 
F3B Bc | d>e df ed | d>c ce dc | !fermata!B4z2 || 
M:3/4
L:1/8
[P:D] "freudig gehend" DE | F2B3c | d2B3e | e2B2c2 | d4dB | c2f3e | d2B3d | d2c2B2 | A4 DE | 
F2B3c | d2B3e | e2B2c2 | d4dB | c2f3e | d2B3e | d2d2c2 | B4DE | 
F2B3c | d2B3e | e2B2c2 | d4dB | c2f3e | d2B3d | d2c2B2 | A4DE | 
F2B3c | d2B3e | e2B2c2 | d4dB | c2f3e | d2B3g | f2d2c2 | B4 |] 
M:3/4
"Ausklang. strahlend"gf | e2B3c | d2f3e | d2d2c2 | !fermata!B4 |]
W:
%W:Reihenfolge: A - B - C - D
W:komponiert für's Eidg. Jodlerfest 2008 in Luzern
W:
W:notiert Edi Gasser. Angaben André von Moos
W:UJV-Naturjodelsammlung: Code-Nr: 37-06
W:http://www.naturjodler.ch/code 37.htm  (with AUDIO)
%Juni 5, 2018

